!!!!SEGMENT: pl-sa--l-1636--087_anonim--keyboard-piece.krn
!!!cenid: 17xx:794
!!!COM: Anonim
!!!COM-rismid: pe30004985
!!!CDT:
!!!CNT:
!!!OTL: Keyboard piece
!!!PDT:
!!!AGN: Secular
!!!SMS-siglum: PL-SA
!!!SMS-shelfmark: L 1636
!!!SMS-shelfwork: 087 W
!!!SMS-variant:
!!!SMS-altvar:
!!!NIFC-rismid: 1001077035
!!!URL-scan: http://repozytorium.nifc.pl/skany/pl-sa-nut--l1636
!!!ONB-nifc: 32r, skan 0035, s. 2-3
**kern	**kern
*part2	*part1
*staff2	*staff1
*group1	*group1
*clefF4	*clefC1
*k[f#c#]	*k[f#c#]
*D:	*D:
*M2/2	*M2/2
*met(c|)	*met(c|)
=1	=1
*^	*^
*2\right	*2\right	*2\right	*2\right
*	*	*	*^
!LO:TX:a:t=P:problem: znaki przykluczowe [f# c# f#]	!	!	!	!
2D/	2DD\	1a	1f#	1d
!LO:TX:a:t=P:problem:4\ 8\ 16\ right:global	!	!LO:TX:a:t=P:problem:4\ 8\ 16\ right:global	!	!
4F#\	2ryy	.	.	.
8.E\L	.	.	.	.
16D\Jk	.	.	.	.
=2	=2	=2	=2	=2
4F#\	2ryy	2a/	1f#	1d
8B\L	.	.	.	.
16A\L	.	.	.	.
!LO:TX:a:t=#	!	!	!	!
16G#y\JJ	.	.	.	.
2E/ 2A	2AA\	8e/L	.	.
.	.	8a/	.	.
.	.	8e/	.	.
.	.	8a/J	.	.
*	*	*	*v	*v
=3	=3	=3	=3
2A/	1AA	8f#/L	2ryy
.	.	8g/	.
.	.	8e/	.
.	.	8f#/J	.
2G/	.	2e/	8c#\L
.	.	.	8d\
.	.	.	8B\
.	.	.	8c#\J
=4	=4	=4	=4
8F#\L	2ryy	2f#/	2d\
8G\	.	.	.
8E\	.	.	.
8F#\J	.	.	.
2E/	2EE/	8g/L	2ryy
.	.	8b/	.
.	.	8e/	.
.	.	8g#X/J	.
*v	*v	*	*
=5	=5	=5
!LO:TX:t=P:problem:mixed beam	!	!
8AA/L	2a/	2ryy
8A\	.	.
8C#/	.	.
8D/J	.	.
4E/	8b/	4g\
.	4cc#/	.
4D/	.	4f#\
.	8b/	.
=6	=6	=6
!LO:TX:a:t=P:problem: nieczytelny rytm	!	!
4C#/	8b/	4e\
.	4a/	.
8BB/L	.	4d\
8E/J	8g/	.
!!LO:LB:g=original
8AA/L	2a/	8c#\L
8C#/J	.	8e\J
8D#X/L	.	4f#\
16C#/L	.	.
16D#/JJ	.	.
=7	=7	=7
!LO:TX:t=P:problem:mixed beam	!	!
8E\L	2g/	2e\
8BB/J	.	.
8C#/L	.	.
16BB/L	.	.
16C#/JJ	.	.
8D/L	2f#/	2d\
8BB/J	.	.
8.AA/L	.	.
16GG/Jk	.	.
=8	=8	=8
4AA/	8e/L	4c#\
.	8a/J	.
4BB/	8g/L	4d\
.	16f#/L	.
.	16g/JJ	.
8C#/L	4g/	4e\
16BB/L	.	.
16C#/JJ	.	.
4D/	8r	4f#\
.	8dd/	.
=9	=9	=9
4G\	8b/L	2e\
.	16a/L	.
.	16b/JJ	.
4E\	8cc#/L	.
.	16b/L	.
.	16cc#/JJ	.
4D/	8dd/L	4f#\
.	8a/J	.
8BB/L	4b/	4g\
16AA/L	.	.
16BB/JJ	.	.
=10	=10	=10
8C#/L	2a/	4g\
8AA/J	.	.
8D/L	.	4f#\
8DD/J	.	.
4GG/	4g/ 4b	8r
.	.	8B\
4AA/	4a/	8c#\L
.	.	16B\L
.	.	16c#\JJ
=11	=11	=11
8BB/L	4g/	4d\
!LO:TX:a:t=P:problem: nieczytelny rytm i wysokości	!	!
16AA/L	.	.
16C#/JJ	.	.
4GG/	8f#/L	4d\
.	16e/L	.
.	16f#/JJ	.
2AA/	2e/	4d\
.	.	4c#\
*	*v	*v
=12	=12
1DD 1AA 1D 1F#	1A 1d 1f#
==	==
*-	*-
!!!system-decoration: [(g1)]
!!!ENC:Anna Matuszewska
!!!END:2020-12-08
!!!ENC: Marta Chmielewska
!!!END: 2020-06-12
